X:15
T:Black Jack (Andrew)
%%VWML:SBG-1-2-545-0
F:http://www.vwml.org/record/SBG/1/2/545
Z:Original Sibelius transcriptions by M. & S. Graebe
M:6/8
I:linebreak $
K:G
V:1 treble nm="P1"
V:1
 G | DEG GFG | ABA AGA | BcB BAG | ABA AGF | G3 E3 |$ DEF G2 |: c | BGB d2 d | dge d2 c | BGB def | %11
 gfe dcB |$ c2 g B2 g | ABA AGA | BcB BAG | AcB AGF | GAB EFG | DEF G2 x :| %18
T:Black Jack (Engraved copperplate)
F:http://www.vwml.org/record/SBG/1/2/545
Z:Original Sibelius transcriptions by M. & S. Graebe
M:6/8
I:linebreak $
K:G
V:1 treble nm="P1"
V:1
 G2 | D4 G2 G3 A G2 | A4 A2 A4 A2 | B3 c B2 B2 A2 G2 | A3 B A2 A3 G F2 | G4 F2 E4 D2 |$ %6
 G2 G2 G2 G4 | d2 | B4 c2 d4 d2 | e3 f g2 d4 d2 | B4 c2 d4 d2 | e3 f g2 d4 B2 | c3 d g2 B3 c B2 |$ %13
 A3 B A2 A3 G A2 | B3 c B2 B3 A G2 | A3 B A2 A3 G F2 | A3 B A2 A3 G F2 | G6 E4 D2 | D3 E F2 G6 | %19
T:Black Jack - Musical Miscellany
F:http://www.vwml.org/record/SBG/1/2/545
Z:Original Sibelius transcriptions by M. & S. Graebe
M:6/8
I:linebreak $
K:D
V:1 treble nm="P1"
V:1
 D | DE G GF G | A3 AG A | B2 B B A G | A2 A A G F | G3 E2 D |$ D E F G2 D | DE G GF G | A3 AG A | %9
 B2 B B A G | A2 A A G F |$ G3 E2 D | D E F G2 :: G | B2 c d B2 | cd e d2 c | Bc d de f | %17
 gf e d2 B |$ c2 g B2 g | A2 A AG A | Bc d dB G | A2 A AG F | G2 F E2 D | D E F G2 x | %24
T:Black Jack - Thistle of Scotland
F:http://www.vwml.org/record/SBG/1/2/545
Z:Original Sibelius transcriptions by M. & S. Graebe
M:6/4
I:linebreak $
K:Ab
V:1 treble nm="P1"
V:1
 E/ D/ | E A A A3/2 B/ c | B3/2 c/ B B2 A/G/ | A c e e2 d/c/ |$ B d c B2 A/G/ | %5
 A3/2 B/ c F3/2 G/ A | E3/2 F/ G A2 e/ e/ | c A c e2 c/ e/ |$ f d f e2 d/ d/ | c A c e c e | %10
 f d f e2 c | d f d c e c |$ B3/2 c/ B B2 G/ G/ | A c e e d c | B d c B2 G | A3/2 B/ c F3/2 G/ A | %16
 E3/2 F/ G A2 x | %17
T:Black Jack -Moore's Irish Melodies
F:http://www.vwml.org/record/SBG/1/2/545
Z:Original Sibelius transcriptions by M. & S. Graebe
M:6/8
I:linebreak $
K:G
V:1 treble nm="P1"
V:1
 D | D G G G F G | A3/2 B/ A A GF | G3/2 B/ d d c B | A/ c3/2 B A3/2 G/ F | G3/2 A/ B E3/2 F/ G | %6
 D E F G2 G |$ B G B d B d | e c e d2 d | B G B d3/2 B/ d | e c e d2 B/ B/ | c c c/>B/ B B B |$ %12
 A3/2 B/ A A2 G/F/ | G B B B3/2 A/ G | A c B !fermata!A3/2 G/ F | G3/2 A/ B E3/2 F/ G | %16
 D E F G2 z | %17
T:Black Jack - Convivial Songster
F:http://www.vwml.org/record/SBG/1/2/545
Z:Original Sibelius transcriptions by M. & S. Graebe
M:6/8
I:linebreak $
K:G
V:1 treble nm="P1"
V:1
 G/ G/ | D EF G AG | A B A A GA | B cB B AG | A BA A GF | G3 E2 D |$ D E F G2 | d/c/ | B cd d ed | %9
 e fg e dc | B cd d ed | e fg e cB |$ c a B g B | A BA A GA | B cB B AG | A BA !fermata!A2 F | %16
 G3 E2 D | D E F G2 x | %18

T:Blue violets - published 1838
%%VWML:SBG-1-2--0
F:http://www.vwml.org/record/SBG/1/2/
Z:Original Sibelius transcriptions by M. & S. Graebe
M:4/4
I:linebreak $
K:D
V:1 treble nm="P1"
V:1
 F A dA Bd A2 | FAdA Bd A2 | FAdc edcB | AFdF/F/ E3 A/G/ |$ FAdA B d2 A | FAdA Bd A2 | Afed cdBG | %7
w: ||||||* * * * * * * I|
 FBAF D2"_&c." x2 | %8
w: |
